X:1
T: Lord MacDuff
C:Alexander Walker
R:Strathspey
Q: 128
K:A
M:4/4
L:1/16
|:F2|EA3 A3c B3A F3A|EC3 A3E FEDC B,3F|EA3 A3c B3A F3A|EC3 A3C B,4 A,2F2|
EA3 A3c B3A F3A|EC3 A3E FEDC B,3F|EA3 A3c B3A F3A|EC3 A3C B,4 A,2f2|
e3A c3A ((3c2d2e2) ((3f2g2a2) |e3A c3A GB3 GE3|e3A c3A d3e f3g|agfe a3c e4 e2fg|
a3A g3A f3A e3A|d3B c3A BE3 GB3|B3F E3D C3D Ef3|eA3 e3c B4 A2:|
